X:12
T:Booth Shot Lincoln
C: Traditional
M:C
L:1/4
Q:130
R: Reel
K:A
|:"A" ECE E/E/ | "D"F/AB/A A/B/ | "A" c c c/B/A | "F#m" F3 (3F/G/F/|
|"A" ECE E/E/| "D"F/A B/Af | "A"ec "E"A/B/A |1"A"A2 "D"F>F:|2"A"A2 "D"a>f |] 
|:"A" ece e/e/ | "D"f/af/a (3f/a/f/ | "A"ec A/B/ c/B/ |
|1"F#m"AF2a/f/|"A"ece e/e/ |"D"f/af/a A/B/ "A" |cc "E"B/c/ B | "A"A2 "D"a>f:|
|2"F#m"AF2(3F/G/F/| "A"ECE E/E/ |"D"F/A B/Af | "A"ec "E"B/c/B | "A"A4||


